packages/tokens/icons/caseSubmission/size32Px.svg

<svg viewBox="0 0 32 32" fill="none" xmlns="http://www.w3.org/2000/svg" width="1em" height="1em"><path fill-rule="evenodd" clip-rule="evenodd" d="M15 16.6667V21.3333C15 21.7015 14.7015 22 14.3333 22C13.0447 22 12 20.9553 12 19.6667V18.3333C12 17.0447 13.0447 16 14.3333 16C14.7015 16 15 16.2985 15 16.6667ZM11 18.3333C11 16.4924 12.4924 15 14.3333 15C15.2538 15 16 15.7462 16 16.6667V21.3333C16 22.2538 15.2538 23 14.3333 23C12.4924 23 11 21.5076 11 19.6667V18.3333ZM26 16.6667V21.3333C26 21.7015 26.2985 22 26.6667 22C27.9553 22 29 20.9553 29 19.6667V18.3333C29 17.0447 27.9553 16 26.6667 16C26.2985 16 26 16.2985 26 16.6667ZM30 18.3333C30 16.4924 28.5076 15 26.6667 15C25.7462 15 25 15.7462 25 16.6667V21.3333C25 22.2538 25.7462 23 26.6667 23C28.5076 23 30 21.5076 30 19.6667V18.3333Z" fill="currentColor"/><path fill-rule="evenodd" clip-rule="evenodd" d="M28 22.5C28 22.2239 27.7761 22 27.5 22C27.2239 22 27 22.2239 27 22.5V24.5C27 24.7761 26.7761 25 26.5 25H21C20.9151 25 20.8351 25.0212 20.765 25.0586C20.4283 24.4286 19.7642 24 19 24H18C16.8954 24 16 24.8954 16 26C16 27.1046 16.8954 28 18 28H19C19.7532 28 20.4091 27.5837 20.7502 26.9686C20.9094 26.6816 21 26.3514 21 26H26.5C27.3284 26 28 25.3284 28 24.5V22.5ZM19 27C19.5523 27 20 26.5523 20 26C20 25.4477 19.5523 25 19 25H18C17.4477 25 17 25.4477 17 26C17 26.5523 17.4477 27 18 27H19Z" fill="currentColor"/><path d="M29.5 19.5L29.5 15C29.5 10.0294 25.4706 6 20.5 6V6C15.5294 6 11.5 10.0294 11.5 15V19.5" stroke="currentColor" stroke-linecap="round"/><path d="M2.5 16.5L8 16.5" stroke="currentColor" stroke-linecap="round"/><path d="M6.37868 18.6213L8.5 16.5L6.37868 14.3787" stroke="currentColor" stroke-linecap="round" stroke-linejoin="round"/></svg>

<svg xmlns="http://www.w3.org/2000/svg" fill="none" viewBox="0 0 32 32" width="1em" height="1em"><path fill="currentColor" fill-rule="evenodd" d="M15 16.667v4.666a.667.667 0 0 1-.667.667A2.333 2.333 0 0 1 12 19.667v-1.334A2.333 2.333 0 0 1 14.333 16c.368 0 .667.299.667.667Zm-4 1.666A3.333 3.333 0 0 1 14.333 15c.92 0 1.667.746 1.667 1.667v4.666c0 .92-.746 1.667-1.667 1.667A3.333 3.333 0 0 1 11 19.667v-1.334Zm15-1.666v4.666c0 .369.299.667.667.667A2.333 2.333 0 0 0 29 19.667v-1.334A2.333 2.333 0 0 0 26.667 16a.667.667 0 0 0-.667.667Zm4 1.666A3.333 3.333 0 0 0 26.667 15c-.92 0-1.667.746-1.667 1.667v4.666c0 .92.746 1.667 1.667 1.667A3.333 3.333 0 0 0 30 19.667v-1.334Z" clip-rule="evenodd"/><path fill="currentColor" fill-rule="evenodd" d="M28 22.5a.5.5 0 0 0-1 0v2a.5.5 0 0 1-.5.5H21a.498.498 0 0 0-.235.059A2 2 0 0 0 19 24h-1a2 2 0 1 0 0 4h1a2 2 0 0 0 2-2h5.5a1.5 1.5 0 0 0 1.5-1.5v-2ZM19 27a1 1 0 1 0 0-2h-1a1 1 0 1 0 0 2h1Z" clip-rule="evenodd"/><path stroke="currentColor" stroke-linecap="round" d="M29.5 19.5V15a9 9 0 0 0-9-9v0a9 9 0 0 0-9 9v4.5m-9-3H8"/><path stroke="currentColor" stroke-linecap="round" stroke-linejoin="round" d="M6.379 18.621 8.5 16.5l-2.121-2.121"/></svg>
